!!!!SEGMENT: 069-1-MEIf-001.krn
!!!COM: Chopin, Fryderyk
!!!OTL: Valse No. 1
!!!OPS: Op. 69
!!!PTL: ŒUVRES POSTHUMES POUR PIANO
!!!PPR: Meissonnier fils
!!!PPP: Paris
!!!AGN: Waltz
!!!NIFC-rismID: 1001030111
!!!NIFC-shelfmark: PL-Wbfc 4765/n
!!!OMD: Lento
!!!OMD: [quarter] = 138
**kern	**kern	**fing	**dynam
*part1	*part1	*	*part1
*	*	*	*
*I"1|re VALSE	*I"(1836)	*	*
*staff2	*staff1	*	*
*clefF4	*clefG2	*	*
*k[b-e-a-d-]	*k[b-e-a-d-]	*	*
*M3/4	*M3/4	*	*
*> [A,A1,A,A2]	*> [A,A1,A,A2]	*	* [A,A1,A,A2]
*>A	*>A	*	*>A
4r	8ee-L	.	p
!	!LO:TX:i:t=con espressione.	!	!
.	8ddnJ	.	.
=2	=2	=2	=2
*^	*	*	*
!	!	!LO:TUP:a	!	!
*ped	*	*	*	*
4reyy	2.F	(>12dd-XL	.	.
.	.	12ee-	.	.
.	.	12dd-J	.	.
4d- 4A-	.	8ccL	.	.
.	.	8dd-	.	.
4d- 4A-	.	8ff	.	.
*Xped	*	*	*	*
.	.	8ee-J)	.	.
=3	=3	=3	=3	=3
*ped	*	*	*	*
4rcyy	2.En	2dd-	.	>
4c 4G	.	.	.	.
4c 4G	.	4cc	.	]
*Xped	*	*	*	*
.	.	.	.	.
=4	=4	=4	=4	=4
*ped	*	*	*	*
4reyy	2.E-X	4r	.	.
4c 4G-X	.	8an\L	.	<
.	.	8b-J	.	.
!	!	!LO:TUP:a	!	!
4c 4G-	.	(>12ccL	.	.
.	.	12ee-	.	.
*Xped	*	*	*	*
.	.	12dd-J)	.	[
=5	=5	=5	=5	=5
*ped	*	*	*	*
4rdyy	2.D-	2cc	.	>
4B- 4F	.	.	.	.
4B- 4F	.	4b-	.	]
*Xped	*	*	*	*
.	.	.	.	.
=6	=6	=6	=6	=6
*ped	*	*	*	*
4rdyy	2.Dn	4.b-/	.	.
4B- 4F	.	.	.	.
.	.	8a-	.	.
!	!	!LO:TUP:b	!	!
4Bn 4F	.	(<12a-L	.	.
.	.	12g	.	.
*Xped	*	*	*	*
.	.	12fJ)	.	.
!!LO:LB:g=original
=7	=7	=7	=7	=7
*ped	*	*	*	*
4rcyy	2.E-	2f	.	>
4c 4A-	.	.	.	.
4c 4A-	.	4e-	.	]
*Xped	*	*	*	*
.	.	.	.	.
*v	*v	*	*	*
=8	=8	=8	=8
*ped	*	*	*
4EE-	4r	.	.
.	8qe-/	.	f
4d- 4B- 4E-	(>8ggL	.	>
.	8ff	.	.
4d- 4G 4E-	8ee-	.	.
*Xped	*	*	*
.	8dd-J)	.	]
=9	=9	=9	=9
*ped	*	*	*
4AA-	2bn	.	]
4c 4A- 4E-	.	.	.
4c 4A- 4E-	[>4cc	.	.
*Xped	*	*	*
.	.	.	.
=10	=10	=10	=10
*^	*	*	*
*ped	*	*	*	*
4rdyy	2.F	(>8ccL]	.	p
.	.	.	.	>
.	.	8dd-	.	.
4d- 4A-	.	8bb-	.	.
.	.	8aa-	.	.
.	.	.	.	.
4d- 4A-	.	8ff	.	.
*Xped	*	*	*	*
.	.	8dd-J)	.	]
=11	=11	=11	=11	=11
*ped	*	*	*	*
4rdyy	2.En	2dd-	.	>
4d- 4G	.	.	.	.
4c 4G	.	4cc	.	]
*Xped	*	*	*	*
.	.	.	.	.
=12	=12	=12	=12	=12
*ped	*	*	*	*
*	*	*Xtuplet	*	*
4rdyy	2.E-X	(<20anLL	.	]
.	.	20b-	.	.
.	.	20a-y	.	.
.	.	20g#X	.	.
.	.	20a-JJ)	.	.
*	*	*tuplet	*	*
!	!	!LO:TUP:a	!	!
4c 4G-X	.	(>12ccL	.	<
.	.	12ee-	.	.
.	.	12ffJ)	.	[
4c 4G-	.	8.gg-XL	.	>
*Xped	*	*	*	*
.	.	16a-Jk	.	]
!!LO:LB:g=original
=13	=13	=13	=13	=13
.	.	8qan/	.	>
4rdyy	2.D-	2cc	.	.
4c 4F	.	.	.	.
4B- 4F	.	4b-	.	]
=14	=14	=14	=14	=14
4rdyy	2.Dn	4.b-/	.	.
4B- 4F	.	.	.	.
.	.	8a-	.	.
.	.	.	.	>
!	!	!LO:TUP:b	!	!
4Bn 4F	.	(<12a-L	.	.
.	.	12g	.	.
.	.	12fJ)	.	]
*v	*v	*	*	*
=15	=15	=15	=15
4EE-	2f	.	]
4c 4A- 4E-	.	.	.
4c 4A- 4E-	4e-	.	.
=16	=16	=16	=16
!	!LO:TUP:b	!	!
4EE-	(<12e-L	.	.
.	12f	.	.
.	12e-J)	.	.
!	!LO:TX:i:t=riten.	!	!
4d- 4G 4E-	(<8dnL	.	.
.	8e-	.	.
4d- 4B- 4E-	8dd-X 8f	.	.
.	8ccJ 8g)	.	.
=17	=17	=17	=17
*ped	*	*	*
4AA-	2a-\	.	.
4c 4E-	.	.	.
!	!LO:TX:t=a tempo.	!	!
*Xped	*	*	*
4r	(>8ee-L	.	.
.	8ddnJ)	.	.
=18	=18	=18	=18
*^	*	*	*
*ped	*	*	*	*
!	!	!LO:TUP:a	!	!
4reyy	2.F	(>12dd-XL	.	.
.	.	12ee-	.	.
.	.	12dd-J)	.	.
4d- 4A-	.	(>8ccL	.	.
.	.	8dd-	.	.
4d- 4A-	.	8ff	.	.
*Xped	*	*	*	*
.	.	8ee-J)	.	.
!!LO:LB:g=original
=19	=19	=19	=19	=19
*ped	*	*	*	*
4rcyy	2.En	(>2dd-	.	>
4d- 4G	.	.	.	.
*Xped	*	*	*	*
.	.	.	.	.
4c 4G	.	4cc)	.	]
=20	=20	=20	=20	=20
*ped	*	*	*	*
4reyy	2.E-X	4r	.	.
4c 4G-X	.	(>8anL	.	.
.	.	8b-	.	.
4c 4G-	.	8cc	.	.
.	.	8qee-/	.	.
*Xped	*	*	*	*
.	.	8dd-J)	.	.
=21	=21	=21	=21	=21
*ped	*	*	*	*
4rcyy	2.D-	(>2cc	.	>
4c 4F	.	.	.	.
4B- 4F	.	4b-)	.	]
*Xped	*	*	*	*
.	.	.	.	.
=22	=22	=22	=22	=22
*ped	*	*	*	*
4rdyy	2.Dn	4.b-/	.	.
4B- 4F	.	.	.	.
*Xped	*	*	*	*
.	.	8a-	.	.
!	!	!LO:TUP:b	!	!
4Bn 4F	.	(<12a-L	.	.
.	.	12g	.	.
.	.	12fJ)	.	.
=23	=23	=23	=23	=23
*ped	*	*	*	*
4reyy	2.E-	2f	.	.
4c 4A-	.	.	.	.
4c 4A-	.	4e-	.	.
*Xped	*	*	*	*
.	.	.	.	.
*v	*v	*	*	*
=24	=24	=24	=24
*ped	*	*	*
4EE-	4r	.	.
.	8qqe-/	.	f
4d- 4B- 4E-	(>8ggL	.	>
.	8ff	.	.
4d- 4G 4E-	8ee-	.	.
.	8dd-J)	.	]
!!LO:LB:g=original
=25	=25	=25	=25
*ped	*	*	*
4AA-	2bn	.	.
4c 4A- 4E-	.	.	.
4c 4A- 4E-	[>4cc	.	.
*Xped	*	*	*
.	.	.	.
=26	=26	=26	=26
*^	*	*	*
*ped	*	*	*	*
4rfyy	2.F	8ccL]	.	p
.	.	(>8dd-	.	.
4d- 4A-	.	8bb-	.	.
.	.	8aa-	.	.
4d- 4A-	.	8ff	.	.
*Xped	*	*	*	*
.	.	8dd-J)	.	.
=27	=27	=27	=27	=27
4reyy	2.En	2dd-	.	>
4d- 4G	.	.	.	.
4c 4G	.	4cc	.	]
=28	=28	=28	=28	=28
*	*	*rscale:2	*	*
*ped	*	*	*	*
*	*	*cue	*	*
!	!	!LO:TUP:b	!	!
4rdyy	2.E-X	(<26an/L	.	<
.	.	26b-	.	.
.	.	26any	.	.
.	.	26g#	.	.
.	.	26any	.	.
.	.	26b-	.	.
.	.	26bn	.	.
4c 4G-X	.	.	.	.
.	.	26cc	.	.
.	.	26dd-	.	.
.	.	26ddn	.	.
.	.	26ee-	.	.
.	.	26een	.	.
.	.	26ffJ)	.	.
*	*	*rscale:1	*	*
*	*	*Xcue	*	*
4c 4G-	.	8gg-X`>L	.	[
.	.	16rff	.	.
*Xped	*	*	*	*
.	.	16anyJk	.	.
=29	=29	=29	=29	=29
.	.	8qan/	.	.
*ped	*	*	*	*
4rdyy	2.D-	(>2cc	.	.
4c 4F	.	.	.	.
*Xped	*	*	*	*
.	.	.	.	.
4B- 4F	.	4b-)	.	.
=30	=30	=30	=30	=30
*ped	*	*	*	*
4rdyy	2.Dn	4.b-/	.	.
4B- 4F	.	.	.	.
.	.	8a-	.	.
.	.	.	.	>
!	!	!LO:TUP:b	!	!
4Bn 4F	.	(<12a-L	.	.
.	.	12g	.	.
*Xped	*	*	*	*
.	.	12fJ)	.	]
*v	*v	*	*	*
!!LO:PB:g=original
=31	=31	=31	=31
*ped	*	*	*
4EE-	2f	.	]
4c 4A- 4E-	.	.	.
4c 4A- 4E-	4e-	.	.
*Xped	*	*	*
.	.	.	.
=32	=32	=32	=32
*ped	*	*	*
!	!LO:TUP:b	!	!
4EE-	(<12e-L	.	.
.	12f	.	.
.	12e-J)	.	.
!	!LO:TX:i:t=riten.	!	!
4d- 4B- 4E-	(<8dnL	.	.
.	8e-	.	.
4d- 4B- 4E-	8dd-X 8f	.	.
*Xped	*	*	*
.	8ccJ 8g)	.	.
=33	=33	=33	=33
*ped	*	*	*
4AA-	2a-\	.	.
4c 4E-	.	.	.
*Xped	*	*	*
.	.	.	.
4r	8ccL	.	.
.	8cc-XJ	.	.
=34||:	=34||:	=34||:	=34||:
*^	*	*	*
!	!	!LO:TX:i:a:t=con anima.	!	!
*ped	*	*	*	*
!	!	!LO:TUP:a	!	!
2.f\ 2.A-\	4.B-/	(>12b-L	.	.
.	.	12ccny	.	.
.	.	12b-J)	.	.
.	.	8an\L	.	.
.	8dn/	8b-J	.	.
.	4d^</	(>8b-L	.	.
*Xped	*	*	*	*
.	.	8bb-J)	.	.
=35	=35	=35	=35	=35
*ped	*	*	*	*
!LO:TX:t=P:the notes and the pause are overlapping:problem	!	!	!	!
2.e-\ 2.G\	4.rc	(>8cccL	.	.
.	.	8bb-	.	.
.	.	8gg	.	.
.	8B-/	8ee-J)	.	.
.	4B-^</	4b-\	.	.
*Xped	*	*	*	*
.	.	.	.	.
=36	=36	=36	=36	=36
*ped	*	*	*	*
*	*^	*	*	*
!	!	!	!LO:TUP:a	!	!
2.dn/	4.A-\	2.BB-\	(>12b-L	.	.
.	.	.	12cc	.	.
.	.	.	12b-J)	.	.
.	.	.	8an\L	.	.
.	8B-\	.	8b-J	.	.
.	4B-^<\	.	(>8b-L	.	.
*Xped	*	*	*	*	*
.	.	.	8bb-J)	.	.
!!LO:LB:g=original
=37	=37	=37	=37	=37	=37
*ped	*	*	*	*	*
!LO:TX:t=P:the notes and the pause are overlapping:problem	!	!	!	!	!
2.e-	4rB	2.G\ 2.E-	(>8.cccL	.	.
.	.	.	16bb-k	.	.
.	8rB	.	8gg	.	.
.	8B-/	.	8ee-J)	.	.
.	4B-^</	.	4b-	.	.
*Xped	*	*	*	*	*
.	.	.	.	.	.
=38	=38	=38	=38	=38	=38
*ped	*	*	*	*	*
!	!	!	!LO:TUP:a	!	!
2.f	4.B-/	2.A-\	(>12b-L	.	.
.	.	.	12cc	.	.
.	.	.	12b-J)	.	.
.	.	.	8an\L	.	.
.	8dn/	.	8b-J	.	.
.	4d^</	.	(>8b-L	.	.
*Xped	*	*	*	*	*
.	.	.	8bb-J)	.	.
=39	=39	=39	=39	=39	=39
*ped	*	*	*	*	*
!LO:TX:t=P:the notes and the pause are overlapping:problem	!	!	!	!	!
2.e-	4rB	2.G\	(>8.cccL	.	.
.	.	.	16bb-k	.	.
.	8rc	.	8gg	.	.
.	8B-/	.	8ee-J)	.	.
.	4B-^</	.	4b-	.	.
*Xped	*	*	*	*	*
.	.	.	.	.	.
*v	*v	*v	*	*	*
=40	=40	=40	=40
*ped	*	*	*
!	!LO:TUP:a	!	!
4BB-	(>12b-L	.	.
.	12cc	.	.
.	12b-J)	.	.
4dn 4Any	(>8anL	.	.
.	8b-	.	.
.	.	.	>
4d 4B-	8aa-X	5	.
*Xped	*	*	*
.	8ggJ)	5	]
=41	=41	=41	=41
*ped	*	*	*
4E-\	(>4.ff	.	.
4e- 4G	.	.	.
.	8ee-L	.	.
4e- 4B-	8g	.	.
*Xped	*	*	*
.	8a-J)	.	.
=42	=42	=42	=42
*^	*	*	*
*	*^	*	*	*
*ped	*	*	*	*	*
!	!	!	!LO:TUP:a	!	!
2.f	4.B-/	2.A-\	12b-L	.	.
.	.	.	12cc	.	.
.	.	.	12b-J	.	.
.	.	.	8an\L	.	.
.	8dn/	.	8b-J	.	.
.	4d^</	.	16b-KL	.	.
.	.	.	(>8.bb-J	.	.
*Xped	*	*	*	*	*
.	.	.	.	.	.
!!LO:LB:g=original
=43	=43	=43	=43	=43	=43
*ped	*	*	*	*	*
!	!	!	!LO:TX:t=P:brak zakończenia łuku:problem	!	!
!LO:TX:t=P:the notes and the pause are overlapping:problem	!	!	!	!	!
2.e-	4rc	2.G\	8ccc`>L)	.	.
.	.	.	16ree	.	.
.	.	.	(>16bb-k	.	.
.	8rc	.	8gg	.	.
.	8B-/	.	8ee-J)	.	.
.	4B-^</	.	4b-	.	.
*Xped	*	*	*	*	*
.	.	.	.	.	.
=44	=44	=44	=44	=44	=44
*ped	*	*	*	*	*
!LO:TX:t=P:the notes and the pause are overlapping:problem	!	!	!	!	!
2.dn	4.A-\	2.BB-\	(>12b-L	.	.
.	.	.	12cc	.	.
.	.	.	12b-J)	.	.
.	.	.	8an\L	.	.
.	8B-	.	8b-J	.	.
.	4B-	.	16b-KL	.	.
.	.	.	(>8.bb-J	.	.
*Xped	*	*	*	*	*
.	.	.	.	.	.
=45	=45	=45	=45	=45	=45
*ped	*	*	*	*	*
!LO:TX:t=P:the notes and the pause are overlapping:problem	!	!	!	!	!
2.e-	4rB	2.G\ 2.E-	8ccc`>L)	.	.
.	.	.	16ree	.	.
.	.	.	(>16bb-k	.	.
.	8rc	.	8gg	.	.
.	8B-/	.	8ee-J)	.	.
.	4B-/	.	4b-	.	.
*Xped	*	*	*	*	*
.	.	.	.	.	.
=46	=46	=46	=46	=46	=46
*ped	*	*	*	*	*
!	!	!	!LO:TUP:a	!	!
2.f	4.B-/	2.A-\	(>12b-L	.	.
.	.	.	12cc	.	.
.	.	.	12b-J)	.	.
.	.	.	8an\L	.	.
.	8dn/	.	8b-J	.	.
.	4d/	.	16b-KL	.	.
*Xped	*	*	*	*	*
.	.	.	(>8.bb-J	.	.
=47	=47	=47	=47	=47	=47
*ped	*	*	*	*	*
!LO:TX:t=P:the notes and the pause are overlapping:problem	!	!	!	!	!
2.e-	4rB	2.G\	8ccc`>L)	.	.
.	.	.	16ree	.	.
.	.	.	(>16bb-k	.	.
.	8rc	.	8gg	.	.
.	8B-/	.	8ee-J	.	.
.	4B-^</	.	4b-)	.	.
*Xped	*	*	*	*	*
.	.	.	.	.	.
*v	*v	*v	*	*	*
!!LO:LB:g=original
=48	=48	=48	=48
*ped	*	*	*
!	!LO:TUP:a	!	!
4BB-	12b-L	.	.
.	12cc	.	.
.	12b-J	.	.
4dn 4Any	(>8anL	.	<
.	8b-	.	.
4d 4B-	8aa-X	.	[
*Xped	*	*	*
.	8ggJ)	.	>
=49	=49	=49	=49
*ped	*	*	*
4E-	(>4.ff	.	.
.	.	.	]
4e- 4G	.	.	.
!	!LO:TX:i:t=riten.	!	!
.	8eenL	.	[
4e- 4B-	8ee-X	.	.
*Xped	*	*	*
.	8ddnJ)	.	.
=50	=50	=50	=50
*^	*	*	*
*ped	*	*	*	*
!	!LO:TX:a:i:t=con forza.	!LO:TX:a:t=tempo.	!	!
!	!	!LO:TUP:a	!	!
4rdyy	2.F	(>12dd-XL	.	.
.	.	12ee-	.	.
.	.	12dd-J	.	.
4d- 4A-	.	8ccL	.	.
.	.	8dd-	.	.
4d- 4A-	.	8ff	.	.
*Xped	*	*	*	*
.	.	8ee-J)	.	.
=51	=51	=51	=51	=51
*ped	*	*	*	*
4reyy	2.En	(>2dd-	.	>
4d- 4G	.	.	.	.
4c 4G	.	4cc)	.	]
*Xped	*	*	*	*
.	.	.	.	.
=52	=52	=52	=52	=52
*ped	*	*	*	*
4rdyy	2.E-X	4r	.	.
4c 4G-X	.	(>\8anL	.	.
.	.	8b-J	.	.
4c 4G-	.	8ccL	.	.
.	.	8qee-/	.	.
*Xped	*	*	*	*
.	.	8dd-J)	.	.
=53	=53	=53	=53	=53
*ped	*	*	*	*
4rcyy	2.D-	(>2cc	.	>
4c 4F	.	.	.	.
4B- 4F	.	4b-)	.	]
*Xped	*	*	*	*
.	.	.	.	.
!!LO:LB:g=original
=54	=54	=54	=54	=54
*ped	*	*	*	*
4rdyy	2.Dn	4.b-/	.	.
4B- 4F	.	.	.	.
*Xped	*	*	*	*
.	.	8a-	.	.
!	!	!LO:TUP:b	!	!
4Bn 4F	.	(<12a-L	.	.
.	.	12g	.	.
.	.	12fJ)	.	.
=55	=55	=55	=55	=55
*ped	*	*	*	*
4reyy	2.E-	2f	.	.
4c 4A-	.	.	.	.
4c 4A-	.	4e-	.	.
*Xped	*	*	*	*
.	.	.	.	.
*v	*v	*	*	*
=56	=56	=56	=56
*ped	*	*	*
4EE-	4r	.	.
.	8qe-/	.	f
4d- 4B- 4E-	(>8ggL	.	>
.	8ff	.	.
4d- 4G 4E-	8ee-	.	.
*Xped	*	*	*
.	8dd-J)	.	]
=57	=57	=57	=57
*ped	*	*	*
4AA-	2bn	.	.
4c 4A- 4E-	.	.	.
4c 4A- 4E-	[>4cc	.	.
*Xped	*	*	*
.	.	.	.
=58	=58	=58	=58
*^	*	*	*
*ped	*	*	*	*
!	!	!	!	!LO:DY:rj
4rdyy	2.F	8ccL]	.	p
.	.	(>8dd-	.	.
.	.	8qdd-/	.	.
4d- 4A-	.	8bb-	.	.
.	.	8aa-	.	.
4d- 4A-	.	8ff	.	.
*Xped	*	*	*	*
.	.	8dd-J)	.	.
=59	=59	=59	=59	=59
4rcyy	2.En	2dd-	.	>
4d- 4G	.	.	.	.
4c 4G	.	4cc	.	]
!!LO:LB:g=original
=60	=60	=60	=60	=60
*ped	*	*	*	*
*	*	*rscale:2	*	*
*	*	*cue	*	*
!	!	!LO:TUP:b	!	!
4rdyy	2.E-X	(<26anL>	.	.
.	.	26b-	.	.
.	.	26any	.	.
.	.	26g#X	.	.
.	.	26any	.	.
.	.	26b-	.	.
.	.	26bn	.	.
4c 4G-X	.	.	.	.
.	.	26cc	.	.
.	.	26dd-	.	.
.	.	26ddn	.	.
.	.	26ee-	.	.
.	.	26een	.	.
.	.	26ffJ	.	.
*	*	*rscale:1	*	*
*	*	*Xcue	*	*
4c 4G-	.	8gg-X`>L)	.	.
.	.	16r	.	.
*Xped	*	*	*	*
.	.	16anyJk	.	.
=61	=61	=61	=61	=61
.	.	8qan/	.	.
*ped	*	*	*	*
4rcyy	2.D-	(>2cc	.	.
4c 4F	.	.	.	.
4B- 4F	.	4b-)	.	.
*Xped	*	*	*	*
.	.	.	.	.
=62	=62	=62	=62	=62
*ped	*	*	*	*
4reyy	2.Dn	4.b-/	.	.
4B- 4F	.	.	.	.
.	.	8a-	.	.
!	!	!LO:TUP:b	!	!
4Bn 4F	.	(<12a-L	.	>
.	.	12g	.	.
*Xped	*	*	*	*
.	.	12fJ)	.	]
*v	*v	*	*	*
=63	=63	=63	=63
*ped	*	*	*
4EE-	2f	.	.
4c 4A- 4E-	.	.	.
4c 4A- 4E-	4e-	.	.
*Xped	*	*	*
.	.	.	.
=64	=64	=64	=64
*ped	*	*	*
!	!LO:TUP:b	!	!
4EE-	(<12e-L	.	.
.	12f	.	.
.	12e-J)	.	.
!	!LO:TX:i:t=riten	!	!
4d- 4B- 4E-	(<8dnL	.	.
.	8e-	.	.
4d- 4B- 4E-	8dd-X 8f	.	.
*Xped	*	*	*
.	8ccJ 8g)	.	.
=65	=65	=65	=65
*>A1	*>A1	*	*>A1
*ped	*	*	*
!!LO:TX:a:B:t=1|a. Volta.
4AA-	2a-	.	.
4c 4E-	.	.	.
*Xped	*	*	*
.	.	.	.
4r	8cc\L	.	.
.	8cc-J	.	.
=66:|!	=66:|!	=66:|!	=66:|!
*>A2	*>A2	*	*>A2
*ped	*	*	*
!!LO:TX:a:B:t=2|a. Volta.
4AA-	2a-\	.	.
4c 4E-	.	.	.
*Xped	*	*	*
.	.	.	.
4r	(>4ff 4dd-	.	.
!!LO:PB:g=original
=67	=67	=67	=67
*> [B]	*> [B]	*	* [B]
*>B	*>B	*	*>B
*^	*	*	*
*	*	*^	*	*
*ped	*	*	*	*	*
!	!	!	!LO:TX:a:i:t=dolce.	!	!
!	!	!LO:TX:t=P:brak zakończenia łuku:problem	!	!	!
4rAyy	4EE-\	2dd- 2b-)	4rB	.	.
!	!	!	!LO:TX:a:B:t=ten.	!	!
2G	4G	.	2d-^<	.	.
*	*	*Xtuplet	*	*	*
.	4E-	(<12fL	.	.	.
.	.	12g	.	.	.
*Xped	*	*	*	*	*
.	.	12fJ)	.	.	.
*v	*v	*	*	*	*
*	*v	*v	*	*
=68	=68	=68	=68
*ped	*	*	*
4AA-	4e- 4c	.	.
4A-	4cc 4a-	.	<
4E-	(>4dd- 4b-	.	.
*Xped	*	*	*
.	.	.	.
.	.	.	[
=69	=69	=69	=69
*^	*	*	*
*	*	*^	*	*
*ped	*	*	*	*	*
4rAyy	4EE-\	2b- 2g)	4rB	.	.
!	!	!	!LO:TX:a:B:t=ten.	!	!
2B-	4B-	.	2d-^<	.	.
.	4E-	(<12fL	.	.	.
.	.	12g	.	.	.
*Xped	*	*	*	*	*
.	.	12fJ)	.	.	.
*v	*v	*	*	*	*
*	*v	*v	*	*
=70	=70	=70	=70
*ped	*	*	*
4AA-	4e- 4c	.	.
4A-	4cc 4a-	.	<
4E-	(>4ff 4dd-	.	.
*Xped	*	*	*
.	.	.	[
=71	=71	=71	=71
*^	*	*	*
*	*	*^	*	*
*ped	*	*	*	*	*
4rAyy	4EE-\	2dd- 2b-)	4rB	.	.
!	!	!	!LO:TX:a:B:t=ten.	!	!
2G	4G	.	2d-^<	.	.
.	4E-	(<12fL	.	.	.
.	.	12g	.	.	.
*Xped	*	*	*	*	*
.	.	12fJ)	.	.	.
*v	*v	*	*	*	*
*	*v	*v	*	*
=72	=72	=72	=72
*ped	*	*	*
4AA-\	4e- 4c	.	.
4A-	4cc 4a-	.	<
4E-	(>4dd- 4b-	.	[[
*Xped	*	*	*
.	.	.	.
!!LO:LB:g=original
=73	=73	=73	=73
*^	*	*	*
*	*	*^	*	*
*ped	*	*	*	*	*
4rcyy	4EE-\	2b- 2g)	4rB	.	.
!	!	!	!LO:TX:a:B:t=ten.	!	!
2B-	4B-	.	2d-^<	.	.
.	4E-	(<12fL	.	.	.
.	.	12g	.	.	.
*Xped	*	*	*	*	*
.	.	12fJ)	.	.	.
*v	*v	*	*	*	*
*	*v	*v	*	*
=74	=74	=74	=74
*ped	*	*	*
4AA-	2e- 2c	.	.
4A-	.	.	.
4E-	(>4ff^<\ 4dd-\	.	.
*Xped	*	*	*
.	.	.	.
=75	=75	=75	=75
*^	*	*	*
*	*	*^	*	*
*ped	*	*	*	*	*
4rByy	4EE-\	2dd- 2b-)	4rB	.	.
!	!	!	!LO:TX:a:B:t=ten.	!	!
2G	4G	.	2d-^<	.	.
.	4E-	(<12fL	.	.	.
.	.	12g	.	.	.
*Xped	*	*	*	*	*
.	.	12fJ)	.	.	.
*v	*v	*	*	*	*
*	*v	*v	*	*
=76	=76	=76	=76
*ped	*	*	*
4AA-	4e- 4c	.	.
4A-	4cc 4a-	.	<
4E-	(>4dd- 4b-	.	.
*Xped	*	*	*
.	.	.	[
=77	=77	=77	=77
*^	*	*	*
*	*	*^	*	*
*ped	*	*	*	*	*
4rByy	4EE-\	2b- 2g)	4rB	.	.
!	!	!	!LO:TX:a:B:t=ten.	!	!
2B-	4B-	.	2d-^<	.	.
.	4E-	(<12fL	.	.	.
.	.	12g	.	.	.
*Xped	*	*	*	*	*
.	.	12fJ)	.	.	.
*v	*v	*	*	*	*
*	*v	*v	*	*
=78	=78	=78	=78
*ped	*	*	*
4AA-	4e- 4c	.	.
4A-	4cc 4a-	.	<
4E-	(>4ff 4dd-	.	.
*Xped	*	*	*
.	.	.	[
!!LO:LB:g=original
=79	=79	=79	=79
*^	*	*	*
*	*	*^	*	*
*ped	*	*	*	*	*
!	!	!LO:TX:t=P:brak zakończenia łuku:problem	!	!	!
4rAyy	4EE-\	2dd- 2b-)	4rA	.	.
!	!	!	!LO:TX:a:B:t=ten.	!	!
2G	4G	.	2d-^	.	.
.	4E-	(<12fL	.	.	.
.	.	12g	.	.	.
*Xped	*	*	*	*	*
.	.	12fJ)	.	.	.
*v	*v	*	*	*	*
*	*v	*v	*	*
=80	=80	=80	=80
*ped	*	*	*
4AA-\	4e- 4c	.	.
4A-	4cc 4a-	.	<
4E-	(>4dd- 4b-	.	[[
.	.	.	.
*Xped	*	*	*
.	.	.	.
=81	=81	=81	=81
*^	*	*	*
*	*	*^	*	*
*ped	*	*	*	*	*
4rByy	4EE-\	2b- 2g)	4rB	.	.
!	!	!	!LO:TX:a:B:t=ten.	!	!
2B-	4B-	.	2d-^<	.	.
.	4E-	(<12fL	.	.	.
.	.	12g	.	.	.
*Xped	*	*	*	*	*
.	.	12fJ	.	.	.
*v	*v	*	*	*	*
*	*v	*v	*	*
=82	=82	=82	=82
!	!LO:S:s=1:note:problem:note-level slur	!	!
2AA-	2e- 2c)	.	.
4r	4cc	.	p
=83	=83	=83	=83
4G 4C	4cc 4en	.	.
2G 2C	4cc^< 4e	.	.
!	!LO:TX:b:i:t=poco	!	!
.	8bnL	.	.
.	8ccJ	.	.
=84	=84	=84	=84
4A- 4C-X	4dd- 4f	.	.
2A- 2C-	4dd-^< 4f	.	.
!	!LO:TX:b:i:t=a	!	!
.	8ccnL	.	.
.	8dd-J	.	.
=85	=85	=85	=85
4B- 4BB-	4ddn 4f	.	.
2B- 2BB-	4dd 4f	.	.
!	!LO:TX:b:i:t=poco.	!	!
.	8ccL	.	.
.	8ddJ	.	.
!!LO:LB:g=original
=86	=86	=86	=86
4B- 4E-	4ee- 4g	.	.
2B- 2E-	4ee-^< 4g	.	.
.	8ddnL	.	.
.	8ee-J	.	.
=87	=87	=87	=87
4c 4C	4een 4g	.	<
2c 2C	4ee^< 4g	.	.
.	8ddnL	.	.
.	8eeJ	.	.
=88	=88	=88	=88
4c 4F	4ff 4a-	.	.
2c 2F	4ff 4a-^<	.	.
.	8eenL	.	.
.	8ffJ	.	.
=89	=89	=89	=89
4e- 4E-	4gg 4b-	.	.
2e- 2E-	4gg 4b-	.	.
.	8ffL	.	f
.	8ggJ	.	.
=90	=90	=90	=90
4e- 4A-	4aa- 4cc	.	.
8e-;> 8G	8bb-;> 8dd-	.	sf
8r;>	8r;>	.	.
4r	(>4ff 4dd-	.	p
=91	=91	=91	=91
*^	*	*	*
*	*	*^	*	*
*ped	*	*	*	*	*
4rAyy	4EE-\	2dd- 2b-)	4rB	.	.
!	!	!	!LO:TX:a:B:t=ten.	!	!
2G	4G	.	2d-^<	.	.
.	4E-	(<12fL	.	.	.
.	.	12g	.	.	.
*Xped	*	*	*	*	*
.	.	12fJ)	.	.	.
*v	*v	*	*	*	*
*	*v	*v	*	*
=92	=92	=92	=92
*ped	*	*	*
4AA-	4e- 4c	.	.
4A-	4cc 4a-	.	<
4E-	(>4dd- 4b-	.	.
*Xped	*	*	*
.	.	.	[
!!LO:LB:g=original
=93	=93	=93	=93
*^	*	*	*
*	*	*^	*	*
*ped	*	*	*	*	*
!	!	!LO:TX:t=P:brak zakończenia łuku:problem	!	!	!
4rByy	4EE-\	2b- 2g)	4rB	.	.
!	!	!	!LO:TX:a:B:t=ten.	!	!
2B-	4B-	.	2d-^<	.	.
.	4E-	(<12fL	.	.	.
.	.	12g	.	.	.
*Xped	*	*	*	*	*
.	.	12fJ)	.	.	.
*v	*v	*	*	*	*
*	*v	*v	*	*
=94	=94	=94	=94
*ped	*	*	*
4AA-\	4e- 4c	.	.
4A-	4cc 4a-	.	<
4E-	(>4ff 4dd-	.	.
*Xped	*	*	*
.	.	.	.
.	.	.	[
=95	=95	=95	=95
*^	*	*	*
*	*	*^	*	*
*ped	*	*	*	*	*
4rGyy	4EE-\	2dd- 2b-)	4rB	.	.
!	!	!	!LO:TX:a:B:t=ten.	!	!
2G	4G	.	2d-	.	.
.	4E-	(<12fL	.	.	.
.	.	12g	.	.	.
*Xped	*	*	*	*	*
.	.	12fJ)	.	.	.
*v	*v	*	*	*	*
*	*v	*v	*	*
=96	=96	=96	=96
*ped	*	*	*
4AA-\	4e- 4c	.	.
4A-	4cc 4a-	.	<
4E-	(>4dd- 4b-	.	.
*Xped	*	*	*
.	.	.	.
.	.	.	[
=97	=97	=97	=97
*^	*	*	*
*	*	*^	*	*
*ped	*	*	*	*	*
4rByy	4FF\	2b- 2g)	4rB	.	.
!	!	!	!LO:TX:a:B:t=ten.	!	!
2B-	4B-	.	2d-^<	.	.
.	4E-	(<12fL	.	.	.
.	.	12g	.	.	.
*Xped	*	*	*	*	*
.	.	12fJ)	.	.	.
*v	*v	*	*	*	*
*	*v	*v	*	*
=98	=98	=98	=98
2AA-	2e- 2c	.	.
4r	4cc	.	.
=99	=99	=99	=99
4G 4C	4cc 4en	.	.
2G 2C	4cc 4e	.	.
.	8bnL	.	.
.	8ccJ	.	.
!!LO:PB:g=original
=100	=100	=100	=100
!	!LO:TX:B:i:t=poco_a_poco_:dur=9q:ext=ud:problem:text with extention lines	!	!
4A- 4C-X	4dd- 4f	.	.
2A- 2C-	4dd-^< 4f	.	.
.	8ccnL	.	.
.	8dd-J	.	.
=101	=101	=101	=101
4B- 4BB-	4ddn\ 4f\	.	.
2B- 2BB-	4dd\ 4f\	.	.
.	8ccL	.	.
.	8ddJ	.	.
=102	=102	=102	=102
4B- 4E-	4ee- 4g	.	.
2B- 2E-	4ee-^< 4g	.	.
.	8ddnL	.	.
.	8ee-J	.	.
=103	=103	=103	=103
4c 4C	4een 4g	.	<
2c 2C	4ee^< 4g	.	.
.	8ddnL	.	.
.	8eeJ	.	.
=104	=104	=104	=104
4c 4F	4ff 4a-	.	.
2c 2F	4ff^< 4a-	.	.
.	8eenL	.	.
.	8ffJ	.	.
=105	=105	=105	=105
4e- 4E-	4gg 4b-	.	.
2e- 2E-	4gg 4b-	.	.
.	8ffL	.	f
.	8ggJ	.	.
=106	=106	=106	=106
4e- 4A-	4aa- 4cc	.	.
8e-;> 8G	8bb-;> 8dd-	.	sf
8r;>	8r;>	.	.
4r	(>4ff 4dd-	.	p
!!LO:LB:g=original
=107	=107	=107	=107
*^	*	*	*
*	*	*^	*	*
*ped	*	*	*	*	*
!	!	!LO:TX:t=P:brak zakończenia łuku:problem	!	!	!
4rGyy	4EE-\	2dd- 2b-)	4rB	.	.
!	!	!	!LO:TX:a:B:t=ten.	!	!
2G	4G	.	2d-^<	.	.
.	4E-	(<12fL	.	.	.
.	.	12g	.	.	.
*Xped	*	*	*	*	*
.	.	12fJ)	.	.	.
*v	*v	*	*	*	*
*	*v	*v	*	*
=108	=108	=108	=108
*ped	*	*	*
4AA-	4e- 4c	.	.
4A-	4cc 4a-	.	<
4E-	(>4dd- 4b-	.	.
*Xped	*	*	*
.	.	.	[
=109	=109	=109	=109
*^	*	*	*
*	*	*^	*	*
*ped	*	*	*	*	*
4rdyy	4EE-\	2b- 2g)	4rB	.	.
!	!	!	!LO:TX:a:B:t=ten.	!	!
2B-	4B-	.	2d-^<	.	.
.	4E-	(<12fL	.	.	.
.	.	12g	.	.	.
*Xped	*	*	*	*	*
.	.	12fJ)	.	.	.
*v	*v	*	*	*	*
*	*v	*v	*	*
=110	=110	=110	=110
*ped	*	*	*
4AA-	4e- 4c	.	.
4A-	4cc 4a-	.	<
4E-	(>4ff 4dd-	.	.
*Xped	*	*	*
.	.	.	[
=111	=111	=111	=111
*^	*	*	*
*	*	*^	*	*
*ped	*	*	*	*	*
4rGyy	4EE-\	2dd- 2b-)	4rB	.	.
!	!	!	!LO:TX:a:B:t=ten.	!	!
2G	4G	.	2d-	.	.
.	4E-	(<12fL	.	.	.
.	.	12g	.	.	.
*Xped	*	*	*	*	*
.	.	12fJ)	.	.	.
*v	*v	*	*	*	*
*	*v	*v	*	*
=112	=112	=112	=112
*ped	*	*	*
4AA-	4e- 4c	.	.
4A-	4cc 4a-	.	<
4E-	(>4dd- 4b-	.	.
*Xped	*	*	*
.	.	.	[
!!LO:LB:g=original
=113	=113	=113	=113
*^	*	*	*
*	*	*^	*	*
*ped	*	*	*	*	*
!	!	!LO:TX:t=P:brak zakończenia łuku:problem	!	!	!
4rByy	4EE-\	2b- 2g)	4rB	.	.
!	!	!	!LO:TX:a:B:t=ten.	!	!
2B-	4B-	.	2d-^<	.	.
.	4E-	(<12fL	.	.	.
.	.	12g	.	.	.
*Xped	*	*	*	*	*
.	.	12fJ)	.	.	.
*v	*v	*	*	*	*
*	*v	*v	*	*
=114	=114	=114	=114
2AA-	2e- 2c	.	.
4r	(>8ee-L	.	.
.	8ddnJ)	.	.
=115	=115	=115	=115
*^	*	*	*
*	*	*tuplet	*	*
*ped	*	*	*	*
!	!	!LO:TUP:a	!	!
4reyy	2.F	(>12dd-XL	.	.
.	.	12ee-	.	.
.	.	12dd-J)	.	.
*	*	*Xtuplet	*	*
4d- 4A-	.	(>8ccL	.	.
.	.	8dd-	.	.
4d- 4A-	.	8ff	.	.
*Xped	*	*	*	*
.	.	8ee-J)	.	.
=116	=116	=116	=116	=116
*ped	*	*	*	*
4rdyy	2.En	(>2dd-	.	>
4d- 4G	.	.	.	.
*Xped	*	*	*	*
.	.	.	.	.
4c 4G	.	4cc)	.	]
=117	=117	=117	=117	=117
*ped	*	*	*	*
4rcyy	2.E-X	4r	.	.
4c 4G-X	.	(>8anL	.	.
.	.	8b-	.	.
4c 4G-	.	8cc	.	.
*Xped	*	*	*	*
.	.	8qee-/	.	.
.	.	8dd-J)	.	.
=118	=118	=118	=118	=118
*ped	*	*	*	*
4rdyy	2.D-	(>2cc	.	>
4c 4F	.	.	.	.
4B- 4F	.	4b-)	.	]
*Xped	*	*	*	*
.	.	.	.	.
!!LO:LB:g=original
=119	=119	=119	=119	=119
*ped	*	*	*	*
4reyy	2.Dn	4.b-/	.	.
4B- 4F	.	.	.	.
*Xped	*	*	*	*
.	.	8a-	.	.
*	*	*tuplet	*	*
!	!	!LO:TUP:b	!	!
4Bn 4F	.	(<12a-L	.	.
.	.	12g	.	.
.	.	12fJ)	.	.
*	*	*Xtuplet	*	*
=120	=120	=120	=120	=120
*ped	*	*	*	*
4reyy	2.E-	2f	.	.
4c 4A-	.	.	.	.
4c 4A-	.	4e-	.	.
*Xped	*	*	*	*
.	.	.	.	.
*v	*v	*	*	*
=121	=121	=121	=121
*ped	*	*	*
4EE-	4r	.	.
.	8qe-/	.	.
!	!	!	!LO:DY:rj
4d- 4B- 4E-	(>8ggL	.	>f
.	8ff	.	.
.	.	.	.
4d- 4G 4E-	8ee-	.	.
*Xped	*	*	*
.	8dd-J)	.	]
=122	=122	=122	=122
*ped	*	*	*
4AA-	2bn	.	.
4c 4A- 4E-	.	.	.
4c 4A- 4E-	[>4cc	.	.
*Xped	*	*	*
.	.	.	.
=123	=123	=123	=123
*^	*	*	*
*ped	*	*	*	*
4rfyy	2.F	8ccL]	.	.
.	.	(>8dd-	.	p
.	.	8qdd-/	.	.
4d- 4A-	.	8bb-	.	.
.	.	8aa-	.	.
4d- 4A-	.	8ff	.	.
*Xped	*	*	*	*
.	.	8dd-J)	.	.
=124	=124	=124	=124	=124
4rcyy	2.En	2dd-	.	>
4d- 4G	.	.	.	.
4c 4G	.	4cc	.	]
!!LO:LB:g=original
=125	=125	=125	=125	=125
*	*	*rscale:2	*	*
*	*	*Xtuplet	*	*
*	*	*cue	*	*
*ped	*	*	*	*
4rdyy	2.E-	(<24an/L	.	<
.	.	24b-	.	.
.	.	24a	.	.
.	.	24g#	.	.
.	.	24a	.	.
.	.	24cc	.	.
4c 4G-X	.	24ee-	.	.
.	.	24gg-X	.	.
.	.	24aan	.	.
*	*	*8va	*	*
.	.	24ccc	.	.
.	.	24eee-	.	.
.	.	24fffJ	.	.
*	*	*rscale:1	*	*
*	*	*tuplet	*	*
*	*	*Xcue	*	*
4c 4G-	.	8ggg-\`>)	.	[
*	*	*X8va	*	*
.	.	16r	.	.
*Xped	*	*	*	*
.	.	16any\	.	.
=126	=126	=126	=126	=126
.	.	8qan/	.	.
*ped	*	*	*	*
4rcyy	2.D-	(>2cc	.	.
4c 4F	.	.	.	.
*Xped	*	*	*	*
.	.	.	.	.
4B- 4F	.	4b-)	.	.
=127	=127	=127	=127	=127
*ped	*	*	*	*
4rdyy	2.Dn	4.b-/	.	.
4B- 4F	.	.	.	.
*Xped	*	*	*	*
.	.	8a-	.	.
!	!	!LO:TUP:b	!	!
4Bn 4F	.	(<12a-L	.	>
.	.	12g	.	.
.	.	12fJ)	.	]
*v	*v	*	*	*
=128	=128	=128	=128
*ped	*	*	*
4EE-	2f	.	.
4c 4A- 4E-	.	.	.
4c 4A- 4E-	4e-	.	.
*Xped	*	*	*
.	.	.	.
=129	=129	=129	=129
*	*Xtuplet	*	*
*ped	*	*	*
4EE-	12e-L	.	.
.	12f	.	.
.	12e-J	.	.
!	!LO:TX:i:t=riten.	!	!
4d- 4B- 4E-	(<8dnL	.	.
.	8e-	.	.
4d- 4B- 4E-	8dd-X 8f	.	.
*Xped	*	*	*
.	8ccJ 8g)	.	.
=130	=130	=130	=130
4AA-	2a-	.	.
4c 4E-	.	.	.
4r	4r	.	.
==	==	==	==
*-	*-	*-	*-
!!!system-decoration: s1{(s2,s3)}
!!!RDF**kern: N = linked
!!!RDF**kern: > = above
!!!RDF**kern: < = below
!!!RDF**dynam: > = "dim." fontstyle="italic"
!!!RDF**dynam: < = "cresc." fontstyle="italic"
!!title: @{OTL}; @{OPS} @{ONM} publisher: @{PPR}
!!!RDF**kern: i=editorial accidental, bracket
!!!ENC: Mateusz Mrugas
!!!END: 2019-12-30
!!!EED: Antoni Szymański
!!!EST: 2020-01-05
!!!rism-genre: Waltz
!!!rism-key: A-flat major
!!!rism-opus: op. 69, no. 1
!!!rism-title: Waltz in A-flat major op. 69, no. 1
!!!rism-permalink: https://opac.rism.info/search?id=1001030111&View=rism
!!!rism-773a-OPR: 1001030110
!!!rism-parent-permalink: https://opac.rism.info/search?id=1001030110&View=rism
